src/payment-discover.svg

<svg xmlns="http://www.w3.org/2000/svg" class="dibsvg-svg dibsvg-discover" viewBox="0 0 500 312">
    <rect width="500" height="312" fill="#F8F8F8" class="dibsvg-color-holder"/>
    <path fill="#F6821F" d="M500,311.122244 L500,178.565464 C466.599866,199.440548 341.349365,271.459586 136.773547,311.122244 L500,311.122244 L500,311.122244 Z" class="dibsvg-color-triangle"/>
    <g fill="#202020" class="dibsvg-color-letters" transform="translate(81.162 115.23)">
        <path d="M332.206079 2.79726119C330.11857 2.79726119 328.031062 4.88476954 328.031062 6.97227789 328.031062 9.05978624 330.11857 11.1472946 332.206079 11.1472946 334.293587 11.1472946 336.381096 9.05978624 336.381096 6.97227789 336.381096 4.88476954 334.293587 2.79726119 332.206079 2.79726119L332.206079 2.79726119 332.206079 2.79726119zM332.206079 10.1035404C330.11857 10.1035404 329.074816 9.05978624 329.074816 6.97227789 329.074816 4.88476954 330.11857 3.84101536 332.206079 3.84101536 334.293587 3.84101536 335.337341 5.92852371 335.337341 6.97227789 335.337341 9.05978624 334.293587 10.1035404 332.206079 10.1035404L332.206079 10.1035404 332.206079 10.1035404zM326.987308 18.4535738C326.987308 8.01603206 319.681029 1.75350701 308.199733 1.75350701L292.54342 1.75350701 292.54342 57.0724783 302.980962 57.0724783 302.980962 35.1536406 304.024716 35.1536406 318.637275 57.0724783 331.162325 57.0724783 314.462258 34.1098864C322.812291 32.0223781 326.987308 26.8036072 326.987308 18.4535738L326.987308 18.4535738 326.987308 18.4535738zM306.112224 27.8473614L302.980962 27.8473614 302.980962 11.1472946 306.112224 11.1472946C312.374749 11.1472946 315.506012 14.2785571 315.506012 19.497328 316.549766 24.7160989 312.374749 27.8473614 306.112224 27.8473614L306.112224 27.8473614 306.112224 27.8473614z"/>
        <polyline points="257.056 57.072 286.281 57.072 286.281 47.679 267.493 47.679 267.493 33.066 285.237 33.066 285.237 23.672 267.493 23.672 267.493 11.147 286.281 11.147 286.281 1.754 257.056 1.754 257.056 57.072"/>
        <polyline points="226.787 39.329 212.174 1.754 201.737 1.754 223.656 58.116 228.874 58.116 251.837 1.754 240.356 1.754 226.787 39.329"/>
        <path d="M102.58016 29.9348697C102.58016 46.6349365 115.10521 59.1599866 130.761523 59.1599866 134.93654 59.1599866 139.111556 58.1162325 143.286573 56.0287241L143.286573 43.503674C139.111556 47.6786907 135.980294 49.7661991 130.761523 49.7661991 120.323981 49.7661991 113.017702 41.4161657 113.017702 30.9786239 113.017702 20.5410822 120.323981 12.1910488 130.761523 12.1910488 135.980294 12.1910488 139.111556 14.2785571 143.286573 18.4535738L143.286573 5.92852371C139.111556 3.84101536 134.93654 2.79726119 130.761523 2.79726119 115.10521.709752839 102.58016 13.2348029 102.58016 29.9348697M83.7925852 23.6723447C77.5300601 21.5848363 75.4425518 19.497328 75.4425518 16.3660655 75.4425518 13.2348029 78.5738143 10.1035404 82.748831 10.1035404 85.8800935 10.1035404 87.9676019 11.1472946 91.0988644 14.2785571L96.3176353 6.97227789C92.1426186 2.79726119 86.9238477.709752839 80.6613226.709752839 71.2675351.709752839 63.9612558 6.97227789 63.9612558 16.3660655 63.9612558 23.6723447 67.0925184 27.8473614 76.4863059 30.9786239 80.6613226 32.0223781 82.748831 33.0661323 83.7925852 34.1098864 85.8800935 35.1536406 86.9238477 37.241149 86.9238477 39.3286573 86.9238477 43.503674 83.7925852 46.6349365 78.5738143 46.6349365 73.3550434 46.6349365 70.2237809 44.5474282 67.0925184 39.3286573L60.8299933 45.5911824C66.0487642 52.8974616 71.2675351 56.0287241 79.6175685 56.0287241 90.0551102 56.0287241 97.3613894 48.7224449 97.3613894 38.2849031 99.4488978 32.0223781 95.2738811 27.8473614 83.7925852 23.6723447"/>
        <polygon points="48.305 1.754 58.742 1.754 58.742 57.072 48.305 57.072"/>
        <path d="M14.9048096,1.75350701 L0.292251169,1.75350701 L0.292251169,57.0724783 L14.9048096,57.0724783 C23.254843,57.0724783 28.4736139,54.9849699 33.6923848,50.8099532 C39.9549098,45.5911824 43.0861723,37.241149 43.0861723,29.9348697 C44.1299265,13.2348029 31.6048764,1.75350701 14.9048096,1.75350701 L14.9048096,1.75350701 L14.9048096,1.75350701 Z M27.4298597,43.503674 C24.2985972,46.6349365 20.1235805,47.6786907 12.8173013,47.6786907 L10.7297929,47.6786907 L10.7297929,11.1472946 L13.8610554,11.1472946 C20.1235805,11.1472946 24.2985972,12.1910488 28.4736139,15.3223113 C31.6048764,18.4535738 33.6923848,23.6723447 33.6923848,28.8911156 C32.6486306,35.1536406 30.5611222,40.3724115 27.4298597,43.503674 L27.4298597,43.503674 L27.4298597,43.503674 Z"/>
    </g>
    <path fill="#F6821F" d="M0,31.3126253 C0,48.0126921 12.5250501,60.5377422 28.1813627,60.5377422 C43.8376754,60.5377422 56.3627255,48.0126921 56.3627255,31.3126253 C56.3627255,15.6563126 43.8376754,3.13126253 28.1813627,3.13126253 C12.5250501,3.13126253 0,15.6563126 0,31.3126253 L0,31.3126253 Z" class="dibsvg-color-circle" transform="translate(228.624 112.809)"/>
</svg>

<svg xmlns="http://www.w3.org/2000/svg" class="dibsvg-svg dibsvg-discover" viewBox="0 0 500 312">
    <rect width="500" height="312" fill="#F8F8F8" class="dibsvg-color-holder"/>
    <path fill="#F6821F" d="M500 311.122V178.565c-33.4 20.876-158.65 92.895-363.226 132.557H500z" class="dibsvg-color-triangle"/>
    <g fill="#202020" class="dibsvg-color-letters" transform="translate(81.162 115.23)">
        <path d="M332.206 2.797c-2.087 0-4.175 2.088-4.175 4.175 0 2.088 2.088 4.175 4.175 4.175 2.088 0 4.175-2.087 4.175-4.175 0-2.087-2.087-4.175-4.175-4.175zm0 7.307c-2.087 0-3.131-1.044-3.131-3.132 0-2.087 1.044-3.131 3.131-3.131 2.088 0 3.131 2.088 3.131 3.131 0 2.088-1.043 3.132-3.13 3.132zm-5.219 8.35c0-10.438-7.306-16.7-18.787-16.7h-15.657v55.318h10.438V35.154h1.044l14.612 21.918h12.525l-16.7-22.962c8.35-2.088 12.525-7.306 12.525-15.656zm-20.875 9.393h-3.131v-16.7h3.131c6.263 0 9.394 3.132 9.394 8.35 1.044 5.22-3.131 8.35-9.394 8.35z"/>
        <polyline points="257.056 57.072 286.281 57.072 286.281 47.679 267.493 47.679 267.493 33.066 285.237 33.066 285.237 23.672 267.493 23.672 267.493 11.147 286.281 11.147 286.281 1.754 257.056 1.754 257.056 57.072"/>
        <polyline points="226.787 39.329 212.174 1.754 201.737 1.754 223.656 58.116 228.874 58.116 251.837 1.754 240.356 1.754 226.787 39.329"/>
        <path d="M102.58 29.935c0 16.7 12.525 29.225 28.182 29.225 4.175 0 8.35-1.044 12.525-3.131V43.504c-4.175 4.175-7.307 6.262-12.525 6.262-10.438 0-17.744-8.35-17.744-18.787 0-10.438 7.306-18.788 17.744-18.788 5.218 0 8.35 2.088 12.525 6.263V5.929c-4.175-2.088-8.35-3.132-12.525-3.132C115.105.71 102.58 13.235 102.58 29.935m-18.787-6.263c-6.263-2.087-8.35-4.175-8.35-7.306 0-3.131 3.13-6.262 7.306-6.262 3.131 0 5.219 1.043 8.35 4.175l5.219-7.307C92.143 2.797 86.924.71 80.66.71c-9.393 0-16.7 6.262-16.7 15.656 0 7.306 3.132 11.481 12.525 14.613 4.175 1.043 6.263 2.087 7.307 3.13 2.087 1.045 3.13 3.132 3.13 5.22 0 4.175-3.13 7.306-8.35 7.306-5.218 0-8.35-2.088-11.48-7.306L60.83 45.59c5.219 7.306 10.438 10.438 18.788 10.438 10.437 0 17.743-7.307 17.743-17.744 2.088-6.263-2.087-10.438-13.568-14.613"/>
        <polygon points="48.305 1.754 58.742 1.754 58.742 57.072 48.305 57.072"/>
        <path d="M14.905 1.754H.292v55.318h14.613c8.35 0 13.569-2.087 18.787-6.262 6.263-5.219 9.394-13.569 9.394-20.875 1.044-16.7-11.481-28.181-28.181-28.181zm12.525 41.75c-3.131 3.13-7.306 4.175-14.613 4.175H10.73V11.147h3.131c6.263 0 10.438 1.044 14.613 4.175 3.13 3.132 5.218 8.35 5.218 13.57-1.043 6.262-3.13 11.48-6.262 14.612z"/>
    </g>
    <path fill="#F6821F" d="M228.624 144.122c0 16.7 12.525 29.225 28.181 29.225 15.657 0 28.182-12.525 28.182-29.225a28.064 28.064 0 0 0-28.182-28.182 28.064 28.064 0 0 0-28.181 28.182z" class="dibsvg-color-circle"/>
</svg>
